Sources/FrostedUI/Resources/Icons.xcassets/mobilePhoneSize12.imageset/mobile-phone-size-12.svg

<svg
  width="12"
  height="12"
  viewBox="0 0 12 12"
  fill="none"
  xmlns="http://www.w3.org/2000/svg"
  data-fui-icon="true"
>
  <path
    d="M4.375 11.125H7.625C8.45345 11.125 9.125 10.4535 9.125 9.625V2.375C9.125 1.54658 8.45345.875 7.625.875H4.375C3.54658.875 2.875 1.54658 2.875 2.375V9.625C2.875 10.4535 3.54658 11.125 4.375 11.125zM4.875 8.84375H7.125"
    stroke="currentColor"
    stroke-width="1.5"
    stroke-linecap="round"
    stroke-linejoin="round"
  />
</svg>

<svg xmlns="http://www.w3.org/2000/svg" width="12" height="12" fill="none" data-fui-icon="true" viewBox="0 0 12 12"><path stroke="currentColor" stroke-linecap="round" stroke-linejoin="round" stroke-width="1.5" d="M4.375 11.125h3.25a1.5 1.5 0 0 0 1.5-1.5v-7.25a1.5 1.5 0 0 0-1.5-1.5h-3.25a1.5 1.5 0 0 0-1.5 1.5v7.25a1.5 1.5 0 0 0 1.5 1.5m.5-2.281h2.25"/></svg>
